source/images/buyers-guide/icon-location.svg

<svg version="1.1" id="Layer_1" xmlns="http://www.w3.org/2000/svg" x="0" y="0" viewBox="0 0 24 29" xml:space="preserve"><style></style><path d="M12 0C5.4 0 0 5.4 0 12c0 7 11.2 16.5 11.7 16.9.1.1.2.1.3.1.1 0 .2 0 .3-.1.5-.4 11.7-9 11.7-16.9 0-6.6-5.4-12-12-12zm0 27.9C10.2 26.3 1 17.9 1 12 1 5.9 5.9 1 12 1s11 4.9 11 11c0 6.7-9.1 14.4-11 15.9z"/><path d="M12 8c-2.2 0-4 1.8-4 4s1.8 4 4 4 4-1.8 4-4-1.8-4-4-4zm0 7c-1.7 0-3-1.3-3-3s1.3-3 3-3 3 1.3 3 3-1.3 3-3 3z"/></svg>

<?xml version="1.0" encoding="utf-8"?>
<!-- Generator: Adobe Illustrator 22.0.1, SVG Export Plug-In . SVG Version: 6.00 Build 0)  -->
<svg version="1.1" id="Layer_1" xmlns="http://www.w3.org/2000/svg" xmlns:xlink="http://www.w3.org/1999/xlink" x="0px" y="0px"
	 viewBox="0 0 24 29" style="enable-background:new 0 0 24 29;" xml:space="preserve">
<style type="text/css">
	.st0{clip-path:url(#SVGID_2_);fill:#4753A4;}
	.st1{fill:none;stroke:#4753A4;stroke-width:0.5;stroke-miterlimit:10;}
	.st2{clip-path:url(#SVGID_4_);fill:#4753A4;}
	.st3{clip-path:url(#SVGID_6_);fill:#4753A4;}
	.st4{clip-path:url(#SVGID_8_);fill:#4753A4;}
	.st5{clip-path:url(#SVGID_10_);fill:#ED3749;}
	.st6{fill:none;stroke:#ED3749;stroke-width:0.5;stroke-miterlimit:10;}
	.st7{clip-path:url(#SVGID_12_);fill:#ED3749;}
	.st8{clip-path:url(#SVGID_14_);fill:#ED3749;}
	.st9{clip-path:url(#SVGID_16_);fill:#ED3749;}
	.st10{clip-path:url(#SVGID_18_);fill:#4CBFAA;}
	.st11{fill:none;stroke:#4CBFAA;stroke-width:0.5;stroke-miterlimit:10;}
	.st12{clip-path:url(#SVGID_20_);fill:#4CBFAA;}
	.st13{clip-path:url(#SVGID_22_);fill:#4CBFAA;}
	.st14{clip-path:url(#SVGID_24_);fill:none;stroke:#4CBFAA;stroke-width:2;stroke-miterlimit:10;}
	.st15{fill:#010101;}
	.st16{fill:none;stroke:#000000;stroke-linecap:round;stroke-linejoin:round;stroke-miterlimit:10;}
	.st17{fill:none;stroke:#ED3648;stroke-width:1.5;stroke-linecap:round;stroke-linejoin:round;stroke-miterlimit:10;}
	.st18{fill:none;stroke:#ED3648;stroke-width:1.25;stroke-linecap:round;stroke-linejoin:round;stroke-miterlimit:10;}
	.st19{fill:none;stroke:#4CBFA9;stroke-width:1.5;stroke-linecap:round;stroke-linejoin:round;stroke-miterlimit:10;}
	.st20{fill:none;stroke:#4CBFA9;stroke-width:1.25;stroke-linecap:round;stroke-linejoin:round;stroke-miterlimit:10;}
	.st21{fill:none;stroke:#4652A4;stroke-width:1.5;stroke-linecap:round;stroke-linejoin:round;stroke-miterlimit:10;}
	.st22{fill:none;stroke:#4652A4;stroke-width:1.25;stroke-linecap:round;stroke-linejoin:round;stroke-miterlimit:10;}
	.st23{fill:#ED3648;}
	.st24{fill:#4652A4;}
	.st25{fill:#4CBFA9;}
</style>
<g>
	<path d="M12,0C5.4,0,0,5.4,0,12c0,7,11.2,16.5,11.7,16.9C11.8,29,11.9,29,12,29c0.1,0,0.2,0,0.3-0.1C12.8,28.5,24,19.9,24,12
		C24,5.4,18.6,0,12,0z M12,27.9C10.2,26.3,1,17.9,1,12C1,5.9,5.9,1,12,1s11,4.9,11,11C23,18.7,13.9,26.4,12,27.9z"/>
	<path d="M12,8c-2.2,0-4,1.8-4,4s1.8,4,4,4s4-1.8,4-4S14.2,8,12,8z M12,15c-1.7,0-3-1.3-3-3s1.3-3,3-3s3,1.3,3,3S13.7,15,12,15z"/>
</g>
</svg>
